assets/svg/1F300.svg

<svg xmlns="http://www.w3.org/2000/svg" viewBox="0 0 64 64" enable-background="new 0 0 64 64"><path d="m56.699 31.3c-1.654-10.684-8.691-17.546-16.05-20.485-3.806-1.522-8.211-2.425-13.174-1.752-11.402 1.537-17.881 9.564-19.902 17.649-1.052 4.207-1.036 9.466 1.345 14.476 4.146 8.749 13.375 13.325 22.667 11.149 5.473-1.284 8.959-4.401 11.212-8.409 2.54-4.514 3.506-12.647-1.471-18.263-4.148-4.692-13.841-7.302-19.599-.843-2.095 2.346-3.833 6.795-1.939 11.126 1.624 3.716 5.912 5.95 9.659 4.559 2.743-1.01 4.051-3.215 3.194-6.399-.342-.047-.339 1.014-.655 1.555-.322.547-.92 1.154-1.6 1.477-3.938 1.925-6.914-1.398-6.817-5.16.065-3.03 2.604-5.768 6.307-6.163 3.816-.416 7.464 1.806 9.08 5.161 3.02 6.306-.577 13.795-7.207 16.14-7.217 2.55-14.26-1.134-17.546-6.716-3.083-5.228-2.524-10.533-.911-14.758 2.262-5.925 8.276-11.519 17.211-11.686 8.527-.165 17.88 4.904 20.681 16.07.949 3.771.879 6.539.333 9.668-.971 5.576-3.523 10.672-8.725 14.816-5.135 4.08-13.11 6.097-19.36 5.159-5.838-.87-11.242-3.451-15.349-7.611-4.55-4.592-7.786-11.321-8.08-18.61-.246-5.992 1.354-12.04 4.271-16.959 2.768-4.672 8.161-9.681 14.247-12.245l3.541-1.233c14.206-3.071 26.05.962 33.996 10.63 4.363 5.326 7.524 12.72 7.97 19.839.043.751-5 2.683-7.326-2.181" fill="#1e75bb" fill-rule="evenodd"/></svg>

<?xml version="1.0" encoding="UTF-8" standalone="no"?>
<!-- Generator: Adobe Illustrator 16.0.0, SVG Export Plug-In . SVG Version: 6.00 Build 0)  -->

<svg
   xmlns:dc="http://purl.org/dc/elements/1.1/"
   xmlns:cc="http://creativecommons.org/ns#"
   xmlns:rdf="http://www.w3.org/1999/02/22-rdf-syntax-ns#"
   xmlns:svg="http://www.w3.org/2000/svg"
   xmlns="http://www.w3.org/2000/svg"
   xmlns:sodipodi="http://sodipodi.sourceforge.net/DTD/sodipodi-0.dtd"
   xmlns:inkscape="http://www.inkscape.org/namespaces/inkscape"
   version="1.1"
   id="Layer_1"
   x="0px"
   y="0px"
   width="64px"
   height="64px"
   viewBox="0 0 64 64"
   enable-background="new 0 0 64 64"
   xml:space="preserve"
   inkscape:version="0.48.5 r10040"
   sodipodi:docname="1F300.svg"
   inkscape:export-filename="D:\TESTINGEMOJI\SVGTEST\1F300.png"
   inkscape:export-xdpi="90"
   inkscape:export-ydpi="90"><metadata
   id="metadata5368"><rdf:RDF><cc:Work
       rdf:about=""><dc:format>image/svg+xml</dc:format><dc:type
         rdf:resource="http://purl.org/dc/dcmitype/StillImage" /><dc:title></dc:title></cc:Work></rdf:RDF></metadata><defs
   id="defs5366" /><sodipodi:namedview
   pagecolor="#ffffff"
   bordercolor="#666666"
   borderopacity="1"
   objecttolerance="10"
   gridtolerance="10"
   guidetolerance="10"
   inkscape:pageopacity="0"
   inkscape:pageshadow="2"
   inkscape:window-width="640"
   inkscape:window-height="480"
   id="namedview5364"
   showgrid="false"
   inkscape:zoom="3.6875"
   inkscape:cx="32"
   inkscape:cy="32"
   inkscape:window-x="594"
   inkscape:window-y="222"
   inkscape:window-maximized="0"
   inkscape:current-layer="Layer_1" />
<path
   clip-rule="evenodd"
   d="M 56.699,31.299 C 55.045,20.615 48.008,13.753 40.646,10.814 36.84,9.292 32.435,8.389 27.472,9.062 16.07,10.599 9.591,18.626 7.57,26.711 6.518,30.918 6.534,36.177 8.915,41.187 13.061,49.936 22.29,54.512 31.582,52.336 37.055,51.052 40.541,47.935 42.794,43.927 45.334,39.413 46.3,31.28 41.323,25.664 37.175,20.972 27.482,18.362 21.724,24.821 c -2.095,2.346 -3.833,6.795 -1.939,11.126 1.624,3.716 5.912,5.95 9.659,4.559 2.743,-1.009 4.051,-3.215 3.194,-6.399 -0.342,-0.047 -0.339,1.014 -0.655,1.555 -0.322,0.547 -0.92,1.154 -1.6,1.477 -3.938,1.925 -6.914,-1.398 -6.817,-5.16 0.065,-3.032 2.604,-5.768 6.307,-6.163 3.816,-0.416 7.464,1.806 9.077,5.161 3.025,6.306 -0.577,13.795 -7.207,16.14 -7.217,2.55 -14.26,-1.134 -17.546,-6.716 -3.083,-5.228 -2.524,-10.533 -0.911,-14.758 2.262,-5.925 8.276,-11.519 17.211,-11.686 8.527,-0.165 17.88,4.904 20.681,16.069 0.949,3.771 0.879,6.539 0.333,9.668 C 50.54,45.27 47.988,50.366 42.786,54.51 37.651,58.59 29.68,60.607 23.426,59.669 17.588,58.799 12.184,56.218 8.077,52.058 3.527,47.466 0.291,40.737 0,33.448 -0.246,27.456 1.354,21.406 4.271,16.489 7.039,11.817 12.432,6.808 18.518,4.244 l 3.541,-1.233 c 14.206,-3.071 26.047,0.962 33.996,10.63 4.363,5.326 7.524,12.72 7.97,19.839 0.043,0.751 -5.004,2.683 -7.326,-2.181 z"
   id="path5362"
   inkscape:connector-curvature="0"
   style="fill:#1e75bb;fill-rule:evenodd" />
</svg>
